app/images/menu.svg

<svg xmlns="http://www.w3.org/2000/svg" width="24" height="14"><path d="M0 8V6h24v2zm0-8h24v2H0zm0 12h24v2H0z" fill="rgba(119,119,119,1)"/></svg>

<svg xmlns="http://www.w3.org/2000/svg" width="24" height="14"><path d="M 0 8 L 0 6 L 24 6 L 24 8 Z M 0 0 L 24 0 L 24 2 L 0 2 Z M 0 12 L 24 12 L 24 14 L 0 14 Z" fill="rgba(119,119,119,1)"></path></svg>
